X:1
T:Night song
T:Josef Rheinberger, Arr: Irving Emerson Original in G flat major
T:Text: Robert Reinick
T:The way is long and dreary.
T:Night song
T:CPDL - Creative Commons Attribution Non Commercial 3.0
T:CPDL - Creative Commons Attribution Non Commercial 3.0
T:CPDL - Creative Commons Attribution Non Commercial 3.0
T:CPDL - Creative Commons Attribution Non Commercial 3.0
C:Josef Rheinberger
Z:Robert Reinick
Z:CPDL - Creative Commons Attribution Non Commercial 3.0
%%score [ 1 2 3 4 ]
L:1/8
Q:1/4=60
M:4/4
K:F
V:1 treble nm="S"
V:2 treble nm="A"
V:3 treble-8 nm="T"
V:4 bass nm="B"
V:1
!pp!"^Adagio" C2 | C2 C2 C2 C2 | C2 C4 ^C2 | D2 D2 D2 D2 | (B4 A2) E2 | F2 ED F2 ED | F2 E4 E>d | %7
w: 1.~The|way is long and|drear- y, The|path is bleak and|bare, _ Our|feet are _ worn and _|wea- ry. But _|
w: 2.~The|snows lie thick a-|round us In~the|dark and gloom- y|night, _ The|tem- pest _ waves a- *|bove us, And the|
w: 3.~Our|hearts are faint with|sor- row, Heav-|y and sad to|bear; _ For~we|dread the _ bit- ter _|mor- row, But _|
!f! d2 c=B d2 cB |"^dim." c6!pp! c2 | c2 F2 c2 F2 | c2 =B4 B2 | _B2 E2 B2 E2 | %12
w: we will _ not dis- *|pair, More|heav- y was thy|bur- den, More|des- o- late thy|
w: stars have _ hid their _|light, But|black- er was the|dark- ness Round|Cal- vary's cross that|
w: we will _ not dis- *|pair, Thou|know- est all our|an- guish, And|Thou wilt bid it|
!<(! (B4!<)! =B2)!f! c2 | c2 c2 c2 c2 | c2 c4 ^c2 | d2 dd d2 d2 | (g2"^dim." !fermata!c4) c2 | %17
w: way, _ _|Lamb of God, who|tak- est the|sins of the world a|way, _ Have|
w: day! _ 1.\-3.~O|||||
w: cease, _ _|_ _ _ _||||
!pp! c4 _e2 c_A | G2 c4 c2 | c4 _e2 c_A |!<(! (G2!<)! c4)!f! c2 | c2 F2 F2 Fc | %22
w: mer- cy up- *|on us, and|give us thy _|peace, _ O|Lamb of God, who _|
w: |||||
w: |||||
!>(! c2 =B4 _B2!>)! |!p! A2 EF!<(! B2 AG!<)! | (d2 c2) z2!mf! c2 | (c2 BA)!<(! A2 GF!<)! | %26
w: tak- est The|sins of the world a- *|way, _ Have|mer- * * cy up- *|
w: ||||
w: ||||
!f! f4!>(! F2 F2!>)! |!pp! (F2 C2)[Q:1/4=50]"^rit.   _    _    _" CD C2 | !fermata!C6 |] %29
w: on us, And|give _ us _ Thy|peace|
w: |||
w: |||
V:2
!pp! A,2 | A,2 A,2 A,2 A,2 | B,2 B,4 B,2 | B,2 B,2 B,2 B,2 | C6 C2 | C2 C2 =B,2 B,2 | %6
 _B,2 (B2 A2)!f! G2 | F2 F2 FD EF |"^dim." E6!pp! E2 | F3 F F2 F2 | F2 F4 F2 | E3 E E2 E2 | %12
!<(! E6!<)!!f! C2 | C2 D2 E2 FG | F2 E4 _E2 | D2 =E^F Gd BG |"^dim." E6 E2 |!pp! _E4 E2 E2 | %18
 =E2 (E2 G2) EC | (C2 _E2) E2 E2 |!<(! (=E4!<)! G2)!f! EC | _E2 E2 E2 E2 |!>(! D2 D4 _D2!>)! | %23
 C2 CC!<(! E2 E2!<)! | F4 z2!mf! C2 | C4!<(! ^C2 C2!<)! |!f! (D2 d2)!>(! c2 B2!>)! | %27
!pp! (A2 GF) E2 FG | !fermata!F6 |] %29
V:3
!pp! C2 | C2 D2 E2 FG | F2 E4 _E2 | D2 =E^F Gd BG | E6 B2 | A2 A2 _A2 A2 | G2 (_d2 c2)!f! B2 | %7
w: 1.~The|way is long and _|drear- y, The|path is _ bleak _ and _|bare, Our|feet are worn and|wea- ry. _ But|
w: 2.~The|snows lie thick a- *|round us In|dark and _ gloom- * y _|night, The|tem- pest waves a-|bove us, _ And~the|
w: 3.~Our|hearts are faint with _|sor- row, Heav-|y and _ sad _ to _|bear; For~we|dread the bit- ter|mor- row, _ But|
 A2 A2 _A2 A2 |"^dim." G6!pp! c2 | _e3 e e2 e2 | d2 d4 d2 | _d3 d dB cd | %12
w: we will not dis|pair, More|heav- y was thy|bur den, More|des- o- late _ thy _|
w: stars have hid their|light, But|black- er was the|dark- ness Round|Cal- vary's cross _ that _|
w: we will not dis-|pair, Thou|know- est all our|an- guish, And|Thou wilt bid _ it _|
!<(! (_d2 c2!<)! =B2)!f! _B2 | A2 A2 A2 A2 | B2 B4 B2 | B2 BB B2 B2 |"^dim." (B4 !fermata!A2) G2 | %17
w: way, _ _ _|Lamb of God, who|tak- est the|sins of the world a-|way, * Have|
w: day! _ _ 1.\-3.~O|||||
w: cease, _ _ _|_ _ _ _||||
!pp! _A4 A2 A2 | B2 B4 B2 | _A4 A2 A2 |!<(! B6!<)!!f! C2 | F2 c2 c2 cF |!>(! F2 F4 F2!>)! | %23
w: mer- cy up-|on us, and|give us thy|peace, O|Lamb of God, who *|tak- est The|
w: ||||||
w: ||||||
 F2 BA!<(! G2 c2!<)! | c4 z2!mf! F2 | F4!<(! F2 F2!<)! |!f! (F2 f2)!>(! e2 d_d!>)! | %27
w: sins of the world a-|way, Have|mer- cy up-|on * us, And *|
w: ||||
w: ||||
!pp! (c2 BA) G2 AB | !fermata!A6 |] %29
w: give * * us Thy *|peace.|
w: ||
w: ||
V:4
!pp! F,,2 | F,,2 F,,2 F,,2 F,,2 | G,,2 G,,4 G,,2 | G,,2 G,,2 G,,2 G,,2 | C,6 C,2 | %5
 C,2 C,2 C,2 C,2 | C,2 C,4!f! C,2 | C,2 C,2 C,2 C,2 |"^dim." (C,2 C2 =B,2)!pp! _B,2 | %9
 A,3 A, A,2 A,2 | ^G,2 G,4 G,2 | =G,3 G, G,2 G,2 |!<(! G,6!<)!!f! C,2 | F,,2 F,,2 F,,2 F,,2 | %14
 G,,2 G,,4 G,,2 | G,2 G,G, G,2 G,2 |"^dim." C,6 C,2 |!pp! C,4 C,2 C,2 | C,2 C,4 C,2 | C,4 C,2 C,2 | %20
!<(! C,6!<)!!f! B,,2 | A,,2 A,2 A,2 A,,2 |!>(! ^G,,2 G,,4 =G,,2!>)! |!p! C,2 C,C,!<(! C,2 CB,!<)! | %24
 A,4 z2!mf! A,,2 | A,,4!<(! A,,2 A,,2!<)! |!f! (B,,2 G,,2)!>(! A,,2 B,,2!>)! |!pp! C,4 C,2 C,2 | %28
 !fermata!F,,6 |] %29

